X:41
T: Irigyeim sokan vannak
K: F
M: 2/4
L: 1/4
g g | f/d/d/c/ | f d | 
g g | f/d/d/c/ | d d | 
c d | B/G/G/F/ | B G | 
c d | B/G/G/F/ | G G | 

